src/lib/runemarks/svg/weapons-ranged-weapon.svg

<svg xmlns="http://www.w3.org/2000/svg" xml:space="preserve" fill-rule="evenodd" stroke-linejoin="round" stroke-miterlimit="2" clip-rule="evenodd" viewBox="0 0 300 300"><path fill-rule="nonzero" d="M292.041.084c-1.603 3.394-3.797 8.606-6.6 15.609-3.6 9.206-6.6 15.919-9.009 20.119-6.806 11.203-12.113 22.612-15.909 34.228l-.6 1.5c-.403 1.406-.797 2.447-1.2 3.15s-1.247 1.05-2.55 1.05-2.147-.3-2.55-.9-.6-1.594-.6-3l-.3-1.8c-.6-4.809-3.206-5.709-7.809-2.7q-3.6 2.405-7.509 6.3c-1.603 1.603-3.9 4.097-6.9 7.509l-16.509 18.609c-9.609 10.406-16.912 18.216-21.919 23.419-3.197 3.403-7.603 8.7-13.209 15.909-6.609 8.203-11.813 14.213-15.609 18.009-14.616 14.616-30.722 34.322-48.337 59.137-2.794 3.797-4.2 8.006-4.2 12.609q.296 3.6 0 11.109l-.3 7.509c0 3.403-1.106 5.803-3.3 7.209-3.797 2.597-7.406 5.906-10.809 9.909-2.203 2.597-5.203 6.506-9.009 11.709-2.803 4.003-5.006 6.9-6.6 8.709l-3.9 4.2c-3.6 3.797-6.103 6.806-7.509 9.009-.403.6-.947 1.097-1.65 1.5s-1.35.403-1.95 0c-1.397-.403-1.903-1.903-1.5-4.5.6-5.203 1.5-10.313 2.7-15.309.403-2.194.6-5.606.6-10.209 0-3.403-1.397-5.503-4.2-6.3l-.6-.3c-.6-.197-1.003-.403-1.2-.6-4.406-4.397-9.609-6.6-15.609-6.6-3.6.197-9.009 1.397-16.209 3.6l-3.6.9c-1.397.197-2.494.197-3.3 0q-1.505 0-2.25-1.35c-.745-1.35-.6-1.697-.3-2.4s.853-1.547 1.65-2.55l.3-.3c5.203-5.606 11.212-11.109 18.009-16.509q3.6-2.7 8.409-.9c1.8.6 3.347.9 4.65.9s2.597-.403 3.9-1.2c1.303-.806 2.353-1.603 3.15-2.4s1.2-1.903 1.2-3.3c0-2.194-1.397-3.497-4.2-3.9-1.603-.403-2.447-1.097-2.55-2.1s.347-2.1 1.35-3.3l9.909-11.109c2.597-2.794 6.159-3.544 10.659-2.25s8.662.947 12.459-1.05c2.203-1.397 5.203-4.106 9.009-8.109l.6-.9c21.412-24.816 40.425-45.337 57.037-61.547 5.813-5.606 14.109-14.316 24.919-26.119l9.309-10.209c5.203-6.009 9.403-10.209 12.609-12.609s5.1-4.753 5.7-7.059 1.8-4.556 3.6-6.759c1.2-1.2 3.094-2.803 5.7-4.8 5.006-4.003 8.813-8.1 11.409-12.309 1.397-2.203 1.847-3.9 1.35-5.1s-1.95-2.194-4.35-3l-.9-.3a21 21 0 0 1-2.4-.6c-1.8-.797-2.747-1.847-2.85-3.15s.656-2.447 2.25-3.45c3-1.8 7.603-4.406 13.809-7.809l6.9-3.9c6.609-3.403 13.912-7.706 21.919-12.909 4.8-3.197 11.916-8.1 21.319-14.709.6 0 1.5-.253 2.7-.75s2.297-.647 3.3-.45zm-97.875 136.303c1.8-1.997 4.303-5.053 7.509-9.159q4.809-6.159 7.509-8.859c2.803-3.197 5.559-5.859 8.259-7.959s5.053-2.653 7.059-1.65c6.009 2.597 11.813 3.3 17.409 2.1 5.006-1.2 10.012-4.106 15.009-8.709 1.603-1.406 2.794-2.1 3.6-2.1s1.303 1.2 1.5 3.6c0 1.406.6 2.4 1.8 3 10.003 6.806 17.606 16.856 22.819 30.169s6.206 27.563 3 42.778c-3.797 16.416-8.4 30.319-13.809 41.728-3.6 8.006-5.597 15.319-6 21.919-.6 8.006.853 15.563 4.35 22.669s9.356 11.559 17.559 13.359c3 0 4.697 1.003 5.1 3 .197 1.003 0 1.8-.6 2.4s-1.397 1.2-2.4 1.8l-.9.3c-3.797 2.4-7.2 3.797-10.209 4.2-3.797.403-7.603-.403-11.409-2.4l-5.4-2.7c-5.006-1.997-8.606-4.097-10.809-6.3-4.2-4.603-7.2-10.003-9.009-16.209-1.406-4.603-2.4-10.8-3-18.609q-.604-10.507 2.7-22.519c1.397-4.603 4.003-11.606 7.809-21.019l.9-2.1c4.397-9.806 6.103-18.919 5.1-27.319-.197-1.2-.403-3.103-.6-5.7-.197-5.409-.9-9.412-2.1-12.009-1.2-2.203-2.494-3.703-3.9-4.5s-3.244-1.303-5.55-1.5c-2.297-.197-5.756-.197-10.359 0l-6.9.3c-5.203 0-10.509-.9-15.909-2.7-4.397-1.603-9.3-3.9-14.709-6.9-.403-.197-1.303-.6-2.7-1.2zM3.234 65.831v-5.7q0-1.504.9-2.7c.9-1.196 1.397-1.2 2.4-1.2l1.2-.3c1.003-.197 1.847-.253 2.55-.15s1.35.553 1.95 1.35l.9.9c.797 1.003 1.303 1.8 1.5 2.4 4.809 7.209 10.612 10.209 17.409 9.009 1.397-.197 3-.197 4.8 0 6.806 1.603 13.406.9 19.809-2.1 4.003-1.8 9.403-5.503 16.209-11.109 13.809-12.403 30.225-20.709 49.238-24.919 10.406-2.194 20.916-2.494 31.519-.9 9.609 1.397 19.509 4.406 29.719 9.009 1.406.6 3.15 2.053 5.25 4.35s3.956 3.75 5.55 4.35c.6.197.806.656.6 1.35s-.6 1.35-1.2 1.95c-1.003 1.603-1.997 4.2-3 7.809-.403 1.997-.853 3.544-1.35 4.65s-.656 2.55-.45 4.35c.197 1.003.6 2.597 1.2 4.8l.3 1.2c1.003 2.597 1.35 4.856 1.05 6.759s-1.65 3.656-4.05 5.25-5.203 4.8-8.409 9.609l-3 4.2c-4.406 5.203-7.8 9.009-10.209 11.409-3 3.197-5.4 2.794-7.209-1.2-2.597-5.606-3.9-10.313-3.9-14.109-.403-8.203-.3-14.213.3-18.009q1.505-7.509-5.4-9.309h-.6c-3.6-1.2-6.3-2.006-8.109-2.4-3-.403-5.803-.3-8.409.3q-2.996.9-6.3.9c-6.206-.197-12.412 1.097-18.609 3.9-4.2 1.8-9.6 5.1-16.209 9.909-4.397 3.197-9.506 5.906-15.309 8.109-4.406 1.603-10.012 3.197-16.809 4.8s-13.809 1.5-21.019-.3c-5.606-1.2-12.113-3.806-19.509-7.809-2.597-1.594-5.203-4.106-7.809-7.509l-.6-.9c-1.603-2.597-3.197-4.303-4.8-5.1-1.2-.403-1.903-1.2-2.1-2.4-.206-.6-.206-1.603 0-3v-1.5z"/></svg>

<?xml version="1.0" encoding="UTF-8" standalone="no"?>
<!DOCTYPE svg PUBLIC "-//W3C//DTD SVG 1.1//EN" "http://www.w3.org/Graphics/SVG/1.1/DTD/svg11.dtd">
<svg width="100%" height="100%" viewBox="0 0 300 300" version="1.1" xmlns="http://www.w3.org/2000/svg" xmlns:xlink="http://www.w3.org/1999/xlink" xml:space="preserve" xmlns:serif="http://www.serif.com/" style="fill-rule:evenodd;clip-rule:evenodd;stroke-linejoin:round;stroke-miterlimit:2;">
    <path d="M292.041,0.084C290.438,3.478 288.244,8.69 285.441,15.693C281.841,24.899 278.841,31.612 276.432,35.812C269.626,47.015 264.319,58.424 260.523,70.04L259.923,71.54C259.52,72.946 259.126,73.987 258.723,74.69C258.32,75.393 257.476,75.74 256.173,75.74C254.87,75.74 254.026,75.44 253.623,74.84C253.22,74.24 253.023,73.246 253.023,71.84L252.723,70.04C252.123,65.231 249.517,64.331 244.914,67.34C242.514,68.943 240.011,71.043 237.405,73.64C235.802,75.243 233.505,77.737 230.505,81.149L213.996,99.758C204.387,110.164 197.084,117.974 192.077,123.177C188.88,126.58 184.474,131.877 178.868,139.086C172.259,147.289 167.055,153.299 163.259,157.095C148.643,171.711 132.537,191.417 114.922,216.232C112.128,220.029 110.722,224.238 110.722,228.841C110.919,231.241 110.919,234.944 110.722,239.95L110.422,247.459C110.422,250.862 109.316,253.262 107.122,254.668C103.325,257.265 99.716,260.574 96.313,264.577C94.11,267.174 91.11,271.083 87.304,276.286C84.501,280.289 82.298,283.186 80.704,284.995L76.804,289.195C73.204,292.992 70.701,296.001 69.295,298.204C68.892,298.804 68.348,299.301 67.645,299.704C66.942,300.107 66.295,300.107 65.695,299.704C64.298,299.301 63.792,297.801 64.195,295.204C64.795,290.001 65.695,284.891 66.895,279.895C67.298,277.701 67.495,274.289 67.495,269.686C67.495,266.283 66.098,264.183 63.295,263.386L62.695,263.086C62.095,262.889 61.692,262.683 61.495,262.486C57.089,258.089 51.886,255.886 45.886,255.886C42.286,256.083 36.877,257.283 29.677,259.486L26.077,260.386C24.68,260.583 23.583,260.583 22.777,260.386C21.774,260.386 21.024,259.936 20.527,259.036C19.782,257.686 19.927,257.339 20.227,256.636C20.527,255.933 21.08,255.089 21.877,254.086L22.177,253.786C27.38,248.18 33.389,242.677 40.186,237.277C42.586,235.477 45.389,235.177 48.595,236.377C50.395,236.977 51.942,237.277 53.245,237.277C54.548,237.277 55.842,236.874 57.145,236.077C58.448,235.271 59.498,234.474 60.295,233.677C61.092,232.88 61.495,231.774 61.495,230.377C61.495,228.183 60.098,226.88 57.295,226.477C55.692,226.074 54.848,225.38 54.745,224.377C54.642,223.374 55.092,222.277 56.095,221.077L66.004,209.968C68.601,207.174 72.163,206.424 76.663,207.718C81.163,209.012 85.325,208.665 89.122,206.668C91.325,205.271 94.325,202.562 98.131,198.559L98.731,197.659C120.143,172.843 139.156,152.322 155.768,136.112C161.581,130.506 169.877,121.796 180.687,109.993L189.996,99.784C195.199,93.775 199.399,89.575 202.605,87.175C205.811,84.775 207.705,82.422 208.305,80.116C208.905,77.81 210.105,75.56 211.905,73.357C213.105,72.157 214.999,70.554 217.605,68.557C222.611,64.554 226.418,60.457 229.014,56.248C230.411,54.045 230.861,52.348 230.364,51.148C229.867,49.948 228.414,48.954 226.014,48.148L225.114,47.848C224.303,47.695 223.502,47.495 222.714,47.248C220.914,46.451 219.967,45.401 219.864,44.098C219.761,42.795 220.52,41.651 222.114,40.648C225.114,38.848 229.717,36.242 235.923,32.839L242.823,28.939C249.432,25.536 256.735,21.233 264.742,16.03C269.542,12.833 276.658,7.93 286.061,1.321C286.661,1.321 287.561,1.068 288.761,0.571C289.961,0.074 291.058,-0.076 292.061,0.121L292.041,0.084ZM194.166,136.387C195.966,134.39 198.469,131.334 201.675,127.228C204.881,123.122 207.384,120.169 209.184,118.369C211.987,115.172 214.743,112.51 217.443,110.41C220.143,108.31 222.496,107.757 224.502,108.76C230.511,111.357 236.315,112.06 241.911,110.86C246.917,109.66 251.923,106.754 256.92,102.151C258.523,100.745 259.714,100.051 260.52,100.051C261.326,100.051 261.823,101.251 262.02,103.651C262.02,105.057 262.62,106.051 263.82,106.651C273.823,113.457 281.426,123.507 286.639,136.82C291.852,150.133 292.845,164.383 289.639,179.598C285.842,196.014 281.239,209.917 275.83,221.326C272.23,229.332 270.233,236.645 269.83,243.245C269.23,251.251 270.683,258.808 274.18,265.914C277.677,273.02 283.536,277.473 291.739,279.273C294.739,279.273 296.436,280.276 296.839,282.273C297.036,283.276 296.839,284.073 296.239,284.673C295.639,285.273 294.842,285.873 293.839,286.473L292.939,286.773C289.142,289.173 285.739,290.57 282.73,290.973C278.933,291.376 275.127,290.57 271.321,288.573L265.921,285.873C260.915,283.876 257.315,281.776 255.112,279.573C250.912,274.97 247.912,269.57 246.103,263.364C244.697,258.761 243.703,252.564 243.103,244.755C242.7,237.75 243.6,230.244 245.803,222.236C247.2,217.633 249.806,210.63 253.612,201.217L254.512,199.117C258.909,189.311 260.615,180.198 259.612,171.798C259.415,170.598 259.209,168.695 259.012,166.098C258.815,160.689 258.112,156.686 256.912,154.089C255.712,151.886 254.418,150.386 253.012,149.589C251.606,148.792 249.768,148.286 247.462,148.089C245.165,147.892 241.706,147.892 237.103,148.089L230.203,148.389C225,148.389 219.694,147.489 214.294,145.689C209.897,144.086 204.994,141.789 199.585,138.789C199.182,138.592 198.282,138.189 196.885,137.589L194.166,136.387ZM3.234,65.831L3.234,60.131C3.234,59.128 3.534,58.228 4.134,57.431C5.034,56.235 5.531,56.231 6.534,56.231L7.734,55.931C8.737,55.734 9.581,55.678 10.284,55.781C10.987,55.884 11.634,56.334 12.234,57.131L13.134,58.031C13.931,59.034 14.437,59.831 14.634,60.431C19.443,67.64 25.246,70.64 32.043,69.44C33.44,69.243 35.043,69.243 36.843,69.44C43.649,71.043 50.249,70.34 56.652,67.34C60.655,65.54 66.055,61.837 72.861,56.231C86.67,43.828 103.086,35.522 122.099,31.312C132.505,29.118 143.015,28.818 153.618,30.412C163.227,31.809 173.127,34.818 183.337,39.421C184.743,40.021 186.487,41.474 188.587,43.771C190.687,46.068 192.543,47.521 194.137,48.121C194.737,48.318 194.943,48.777 194.737,49.471C194.531,50.165 194.137,50.821 193.537,51.421C192.534,53.024 191.54,55.621 190.537,59.23C190.134,61.227 189.684,62.774 189.187,63.88C188.69,64.986 188.531,66.43 188.737,68.23C188.934,69.233 189.337,70.827 189.937,73.03L190.237,74.23C191.24,76.827 191.587,79.086 191.287,80.989C190.987,82.892 189.637,84.645 187.237,86.239C184.837,87.833 182.034,91.039 178.828,95.848L175.828,100.048C171.422,105.251 168.028,109.057 165.619,111.457C162.619,114.654 160.219,114.251 158.41,110.257C155.813,104.651 154.51,99.944 154.51,96.148C154.107,87.945 154.21,81.935 154.81,78.139C155.813,73.133 154.013,70.03 149.41,68.83L148.81,68.83C145.21,67.63 142.51,66.824 140.701,66.43C137.701,66.027 134.898,66.13 132.292,66.73C130.295,67.33 128.195,67.63 125.992,67.63C119.786,67.433 113.58,68.727 107.383,71.53C103.183,73.33 97.783,76.63 91.174,81.439C86.777,84.636 81.668,87.345 75.865,89.548C71.459,91.151 65.853,92.745 59.056,94.348C52.259,95.951 45.247,95.848 38.037,94.048C32.431,92.848 25.924,90.242 18.528,86.239C15.931,84.645 13.325,82.133 10.719,78.73L10.119,77.83C8.516,75.233 6.922,73.527 5.319,72.73C4.119,72.327 3.416,71.53 3.219,70.33C3.013,69.73 3.013,68.727 3.219,67.33L3.219,65.83L3.234,65.831Z" style="fill-rule:nonzero;"/>
</svg>
